icon-svg/playstation.svg

<svg xmlns="http://www.w3.org/2000/svg" fill="#44739e" viewBox="0 0 24 24"><path d="M1.8013 18.8556c-1.8879-.5398-2.2085-1.654-1.3456-2.296.798-.5953 2.1548-1.0397 2.1548-1.0397l5.6032-2.0015v2.2804l-4.0323 1.4496c-.7131.2599-.8223.6203-.2426.8101s1.6271.136 2.3393-.1204l1.9339-.7053v2.0404c-.1222.0225-.2599.0442-.3856.065a12.63 12.63 90 0 1-6.0251-.4826m11.8215.2374 6.2877-2.244c.7139-.26.8231-.6187.2434-.8084s-1.6271-.1361-2.3393.1213L13.6245 17.64v-2.3558l.2426-.0823a14.36 14.36 90 0 1 2.9121-.6178c1.7025-.188 3.7872.026 5.423.6464 1.8446.5839 2.0525 1.4443 1.5838 2.0369s-1.6176 1.0146-1.6176 1.0146l-8.5439 3.075Zm.7356-14.6053c3.3106 1.1428 4.4326 2.5654 4.4326 5.7712 0 3.1235-1.9182 4.3079-4.3546 3.1252v-5.825c0-.6827-.1248-1.3117-.7625-1.4902-.4886-.1577-.7919.2989-.7919.9816v14.5777l-3.9093-1.2477V3c1.6627.3102 4.0843 1.0397 5.3857 1.4842Z"/></svg>

<?xml version="1.0" encoding="UTF-8"?>
<svg xmlns="http://www.w3.org/2000/svg" viewBox="0 0 24 24" fill="#44739e">
	<path d="M1.8013 18.8556C-.0866 18.3158-.4072 17.2016.4557 16.5596 1.2537 15.9643 2.6105 15.5199 2.6105 15.5199L8.2137 13.5184V15.7988L4.1814 17.2484C3.4683 17.5083 3.3591 17.8687 3.9388 18.0585S5.5659 18.1945 6.2781 17.9381L8.212 17.2328V19.2732C8.0898 19.2957 7.9521 19.3174 7.8264 19.3382A12.6316 12.6316 90 011.8013 18.8556ZM13.6228 19.093 19.9105 16.849C20.6244 16.589 20.7336 16.2303 20.1539 16.0406S18.5268 15.9045 17.8146 16.1619L13.6245 17.64V15.2842L13.8671 15.2019A14.3575 14.3575 90 0116.7792 14.5841C18.4817 14.3961 20.5664 14.6101 22.2022 15.2305 24.0468 15.8144 24.2547 16.6748 23.786 17.2674S22.1684 18.282 22.1684 18.282L13.6245 21.357ZM14.3584 4.4877C17.669 5.6305 18.791 7.0531 18.791 10.2589 18.791 13.3824 16.8728 14.5668 14.4364 13.3841V7.5591C14.4364 6.8764 14.3116 6.2474 13.6739 6.0689 13.1853 5.9112 12.882 6.3678 12.882 7.0505V21.6282L8.9727 20.3805V3C10.6354 3.3102 13.057 4.0397 14.3584 4.4842Z"/>
</svg>
